icons/lines/forward-item-one.svg

<svg xmlns="http://www.w3.org/2000/svg" width="24" height="24" viewBox="0 0 24 24" fill="none" stroke="currentColor" stroke-width="2" stroke-linecap="round" stroke-linejoin="round" >
  <path d="M17.3799 10.38V13.61C17.3799 16.3 16.2999 17.38 13.6099 17.38H10.3799C7.68986 17.38 6.60986 16.3 6.60986 13.61V10.38C6.60986 7.69 7.68986 6.60999 10.3799 6.60999H13.6099C16.3099 6.61999 17.3799 7.69 17.3799 10.38Z"/>
  <path d="M22 5.76999V9C22 11.69 20.92 12.77 18.23 12.77H17.38V10.39C17.38 7.70001 16.3 6.62 13.61 6.62H11.23V5.76999C11.23 3.07999 12.31 2 15 2H18.23C20.92 2 22 3.07999 22 5.76999Z"/>
  <path d="M2 18.23V15C2 12.31 3.08 11.23 5.77 11.23H6.62V13.61C6.62 16.3 7.7 17.38 10.39 17.38H12.77V18.23C12.77 20.92 11.69 22 9 22H5.77C3.08 22 2 20.92 2 18.23Z"/>
  </svg>

<svg xmlns="http://www.w3.org/2000/svg" width="24" height="24" viewBox="0 0 24 24" fill="none" stroke="currentColor" stroke-width="2" stroke-linecap="round" stroke-linejoin="round">
  <path d="M10.38 17.38c-2.69 0-3.77-1.08-3.77-3.77v-3.23c0-2.69 1.08-3.77 3.77-3.77h3.23c2.7.01 3.77 1.08 3.77 3.77v3.23c0 2.69-1.08 3.77-3.77 3.77z" />
  <path d="M12.77 17.38v.85C12.77 20.92 11.69 22 9 22H5.77C3.08 22 2 20.92 2 18.23V15c0-2.69 1.08-3.77 3.77-3.77h.85v2.38c0 2.69 1.08 3.77 3.77 3.77" />
  <path d="M22 9c0 2.69-1.08 3.77-3.77 3.77h-.85v-2.38c0-2.69-1.08-3.77-3.77-3.77h-2.38v-.85C11.23 3.08 12.31 2 15 2h3.23C20.92 2 22 3.08 22 5.77z" />
</svg>
